assets/procure/original.svg

<svg viewBox="0 0 69.2 108.3" xmlns="http://www.w3.org/2000/svg"><path d="m36.3 68.8v-26c0-1.2.6-2.4 1.7-3.1l24.5-15.4c2.4-1.5 5.5.2 5.5 3.1v22.4c0 1.9-1 3.6-2.6 4.6l-26.4 16c-1.2.7-2.7-.2-2.7-1.6m-3.6 36v-26.7c0-1.2-.6-2.4-1.7-3.1l-26.1-16.4c-1.7-1.1-3.9.2-3.9 2.1v25.4c0 1.2.6 2.4 1.7 3.1l27.3 17.1c1.2.8 2.7-.1 2.7-1.5" fill="#ea6611"/><path d="m36.3 3.2v30.2c0 1.4 1.6 2.3 2.8 1.5l20.4-13.3c1.7-1.1 1.8-3.5.1-4.7l-20.4-15.2c-1.2-.9-2.9 0-2.9 1.5" fill="#ff9b5a"/><path d="m32.7 2.9v65.9c0 1.4-1.6 2.3-2.8 1.5l-27.2-17.1c-1-.7-1.7-1.8-1.7-3.1v-28.6c0-1.2.6-2.4 1.7-3.1l27.3-17.1c1.2-.7 2.7.1 2.7 1.6" fill="#fe7f2d"/></svg>

<svg xmlns="http://www.w3.org/2000/svg" xml:space="preserve" id="Layer_1" x="0" y="0" viewBox="0 0 69.2 108.3"><path d="M36.3 68.8v-26c0-1.2.6-2.4 1.7-3.1l24.5-15.4c2.4-1.5 5.5.2 5.5 3.1v22.4c0 1.9-1 3.6-2.6 4.6L39 70.4c-1.2.7-2.7-.2-2.7-1.6M32.7 104.8V78.1c0-1.2-.6-2.4-1.7-3.1L4.9 58.6c-1.7-1.1-3.9.2-3.9 2.1v25.4c0 1.2.6 2.4 1.7 3.1L30 106.3c1.2.8 2.7-.1 2.7-1.5" fill="#ea6611"/><path d="M36.3 3.2v30.2c0 1.4 1.6 2.3 2.8 1.5l20.4-13.3c1.7-1.1 1.8-3.5.1-4.7L39.2 1.7c-1.2-.9-2.9 0-2.9 1.5" fill="#ff9b5a"/><path d="M32.7 2.9v65.9c0 1.4-1.6 2.3-2.8 1.5L2.7 53.2c-1-.7-1.7-1.8-1.7-3.1V21.5c0-1.2.6-2.4 1.7-3.1L30 1.3c1.2-.7 2.7.1 2.7 1.6" fill="#fe7f2d"/></svg>
